public/mascots/dropout/bear-homecoming-512x512.svg

<svg xmlns="http://www.w3.org/2000/svg" width="512" height="512" viewBox="0 0 512 512"><defs><linearGradient id="b" x1="0%" x2="100%" y1="0%" y2="100%"><stop offset="0%" style="stop-color:sienna"/><stop offset="50%" style="stop-color:#8b4513"/><stop offset="100%" style="stop-color:#654321"/></linearGradient><linearGradient id="c" x1="0%" x2="0%" y1="0%" y2="100%"><stop offset="0%" style="stop-color:#4169e1"/><stop offset="50%" style="stop-color:#27408b"/><stop offset="100%" style="stop-color:#191970"/></linearGradient><filter id="a" width="140%" height="140%" x="-20%" y="-20%"><feDropShadow dx="3" dy="3" flood-opacity=".2" stdDeviation="4"/></filter></defs><ellipse cx="256" cy="480" opacity=".1" rx="100" ry="20"/><g filter="url(#a)"><circle cx="160" cy="128" r="64" fill="url(#b)"/><circle cx="352" cy="128" r="64" fill="url(#b)"/><circle cx="160" cy="128" r="32" fill="peru"/><circle cx="352" cy="128" r="32" fill="peru"/></g><ellipse cx="256" cy="192" fill="url(#b)" rx="128" ry="112"/><ellipse cx="224" cy="152" fill="#fff" opacity=".08" rx="40" ry="24"/><ellipse cx="256" cy="224" fill="#deb887" rx="64" ry="48"/><ellipse cx="256" cy="208" fill="#333" rx="24" ry="20"/><ellipse cx="248" cy="200" fill="#fff" opacity=".5" rx="8" ry="6"/><path fill="none" stroke="#333" stroke-linecap="round" stroke-width="4" d="M224 248q32 24 64 0"/><ellipse cx="208" cy="176" fill="#fff" rx="24" ry="28"/><ellipse cx="212" cy="176" fill="#333" rx="12" ry="16"/><circle cx="216" cy="172" r="5" fill="#fff"/><ellipse cx="304" cy="176" fill="#fff" rx="24" ry="28"/><ellipse cx="300" cy="176" fill="#333" rx="12" ry="16"/><circle cx="296" cy="172" r="5" fill="#fff"/><g filter="url(#a)"><path fill="gold" d="m128 96 32-64 32 32 32-32 32 32 32-32 32 32 32-32 32 64Z"/><circle cx="160" cy="32" r="10" fill="#ff1493"/><circle cx="224" cy="32" r="10" fill="#ff1493"/><circle cx="288" cy="32" r="10" fill="#ff1493"/><circle cx="352" cy="32" r="10" fill="#ff1493"/></g><path fill="url(#c)" d="M160 288q0-48 96-64 96 16 96 64 0 128-96 160-96-32-96-160"/><path stroke="#191970" stroke-width="6" d="M256 256v160"/><circle cx="256" cy="272" r="16" fill="gold"/><path fill="none" stroke="#191970" stroke-width="8" d="m192 240 32 16h64l32-16"/><path fill="#27408b" d="m208 248 16 8h64l16-8"/><path fill="url(#c)" d="M160 320q-32 32-16 64t48 0"/><path fill="url(#c)" d="M352 320q32 32 16 64t-48 0"/><rect width="40" height="24" x="152" y="368" fill="#191970" rx="4"/><rect width="40" height="24" x="320" y="368" fill="#191970" rx="4"/><circle cx="160" cy="400" r="20" fill="#8b4513"/><circle cx="352" cy="400" r="20" fill="#8b4513"/></svg>

<svg xmlns="http://www.w3.org/2000/svg" viewBox="0 0 512 512" width="512" height="512">
  <defs>
    <linearGradient id="hbBearBrown512" x1="0%" y1="0%" x2="100%" y2="100%">
      <stop offset="0%" style="stop-color:#A0522D"/>
      <stop offset="50%" style="stop-color:#8B4513"/>
      <stop offset="100%" style="stop-color:#654321"/>
    </linearGradient>
    <linearGradient id="hbBearJacket512" x1="0%" y1="0%" x2="0%" y2="100%">
      <stop offset="0%" style="stop-color:#4169E1"/>
      <stop offset="50%" style="stop-color:#27408B"/>
      <stop offset="100%" style="stop-color:#191970"/>
    </linearGradient>
    <filter id="hbShadow512" x="-20%" y="-20%" width="140%" height="140%">
      <feDropShadow dx="3" dy="3" stdDeviation="4" flood-opacity="0.2"/>
    </filter>
  </defs>
  <ellipse cx="256" cy="480" rx="100" ry="20" fill="#000" opacity="0.1"/>
  <g filter="url(#hbShadow512)">
    <circle cx="160" cy="128" r="64" fill="url(#hbBearBrown512)"/>
    <circle cx="352" cy="128" r="64" fill="url(#hbBearBrown512)"/>
    <circle cx="160" cy="128" r="32" fill="#CD853F"/>
    <circle cx="352" cy="128" r="32" fill="#CD853F"/>
  </g>
  <ellipse cx="256" cy="192" rx="128" ry="112" fill="url(#hbBearBrown512)"/>
  <ellipse cx="224" cy="152" rx="40" ry="24" fill="#FFF" opacity="0.08"/>
  <ellipse cx="256" cy="224" rx="64" ry="48" fill="#DEB887"/>
  <ellipse cx="256" cy="208" rx="24" ry="20" fill="#333"/>
  <ellipse cx="248" cy="200" rx="8" ry="6" fill="#FFF" opacity="0.5"/>
  <path d="M224 248 Q256 272 288 248" fill="none" stroke="#333" stroke-width="4" stroke-linecap="round"/>
  <ellipse cx="208" cy="176" rx="24" ry="28" fill="#FFF"/>
  <ellipse cx="212" cy="176" rx="12" ry="16" fill="#333"/>
  <circle cx="216" cy="172" r="5" fill="#FFF"/>
  <ellipse cx="304" cy="176" rx="24" ry="28" fill="#FFF"/>
  <ellipse cx="300" cy="176" rx="12" ry="16" fill="#333"/>
  <circle cx="296" cy="172" r="5" fill="#FFF"/>
  <g filter="url(#hbShadow512)">
    <path d="M128 96 L160 32 L192 64 L224 32 L256 64 L288 32 L320 64 L352 32 L384 96 Z" fill="#FFD700"/>
    <circle cx="160" cy="32" r="10" fill="#FF1493"/>
    <circle cx="224" cy="32" r="10" fill="#FF1493"/>
    <circle cx="288" cy="32" r="10" fill="#FF1493"/>
    <circle cx="352" cy="32" r="10" fill="#FF1493"/>
  </g>
  <path d="M160 288 Q160 240 256 224 Q352 240 352 288 Q352 416 256 448 Q160 416 160 288Z" fill="url(#hbBearJacket512)"/>
  <line x1="256" y1="256" x2="256" y2="416" stroke="#191970" stroke-width="6"/>
  <circle cx="256" cy="272" r="16" fill="#FFD700"/>
  <path d="M192 240 L224 256 L288 256 L320 240" fill="none" stroke="#191970" stroke-width="8"/>
  <path d="M208 248 L224 256 L288 256 L304 248" fill="#27408B"/>
  <path d="M160 320 Q128 352 144 384 Q160 416 192 384" fill="url(#hbBearJacket512)"/>
  <path d="M352 320 Q384 352 368 384 Q352 416 320 384" fill="url(#hbBearJacket512)"/>
  <rect x="152" y="368" width="40" height="24" fill="#191970" rx="4"/>
  <rect x="320" y="368" width="40" height="24" fill="#191970" rx="4"/>
  <circle cx="160" cy="400" r="20" fill="#8B4513"/>
  <circle cx="352" cy="400" r="20" fill="#8B4513"/>
</svg>
